static/img/kroki/b37dbbd09b6295b3ce34ca593639b976.svg

<?xml version="1.0" encoding="us-ascii" standalone="no"?><svg xmlns="http://www.w3.org/2000/svg" xmlns:xlink="http://www.w3.org/1999/xlink" contentStyleType="text/css" height="252px" preserveAspectRatio="none" style="width:302px;height:252px;" version="1.1" viewBox="0 0 302 252" width="302px" zoomAndPan="magnify"><defs/><g><!--class aws_ecs_task--><g id="elem_aws_ecs_task"><rect codeLine="22" fill="#3D176E" height="39.7891" id="aws_ecs_task" rx="2.5" ry="2.5" style="stroke:#000D19;stroke-width:0.5;" width="154" x="8.5" y="206.58"/><ellipse cx="23.5" cy="226.4745" fill="#ADD1B2" rx="11" ry="11" style="stroke:#181818;stroke-width:1.0;"/><path d="M26.4688,232.1152 Q25.8906,232.412 25.25,232.5527 Q24.6094,232.7089 23.9063,232.7089 Q21.4063,232.7089 20.0781,231.0683 Q18.7656,229.412 18.7656,226.287 Q18.7656,223.162 20.0781,221.5058 Q21.4063,219.8495 23.9063,219.8495 Q24.6094,219.8495 25.25,220.0058 Q25.9063,220.162 26.4688,220.4589 L26.4688,223.1777 Q25.8438,222.5995 25.25,222.3339 Q24.6563,222.0527 24.0313,222.0527 Q22.6875,222.0527 22,223.1308 Q21.3125,224.1933 21.3125,226.287 Q21.3125,228.3808 22,229.4589 Q22.6875,230.5214 24.0313,230.5214 Q24.6563,230.5214 25.25,230.2558 Q25.8438,229.9745 26.4688,229.3964 L26.4688,232.1152 Z " fill="#000000"/><text fill="#D9B8FF" font-family="Helvetica" font-size="17" lengthAdjust="spacing" textLength="112" x="42.5" y="232.3598">aws_ecs_task</text></g><!--class aws_ecs_task_definition--><g id="elem_aws_ecs_task_definition"><rect codeLine="24" fill="#3D176E" height="39.7891" id="aws_ecs_task_definition" rx="2.5" ry="2.5" style="stroke:#000D19;stroke-width:0.5;" width="243" x="52" y="106.79"/><ellipse cx="67" cy="126.6845" fill="#ADD1B2" rx="11" ry="11" style="stroke:#181818;stroke-width:1.0;"/><path d="M69.9688,132.3252 Q69.3906,132.622 68.75,132.7627 Q68.1094,132.9189 67.4063,132.9189 Q64.9063,132.9189 63.5781,131.2783 Q62.2656,129.622 62.2656,126.497 Q62.2656,123.372 63.5781,121.7158 Q64.9063,120.0595 67.4063,120.0595 Q68.1094,120.0595 68.75,120.2158 Q69.4063,120.372 69.9688,120.6689 L69.9688,123.3877 Q69.3438,122.8095 68.75,122.5439 Q68.1563,122.2627 67.5313,122.2627 Q66.1875,122.2627 65.5,123.3408 Q64.8125,124.4033 64.8125,126.497 Q64.8125,128.5908 65.5,129.6689 Q66.1875,130.7314 67.5313,130.7314 Q68.1563,130.7314 68.75,130.4658 Q69.3438,130.1845 69.9688,129.6064 L69.9688,132.3252 Z " fill="#000000"/><text fill="#D9B8FF" font-family="Helvetica" font-size="17" lengthAdjust="spacing" textLength="201" x="86" y="132.5698">aws_ecs_task_definition</text></g><!--class aws_iam_role--><g id="elem_aws_iam_role"><rect codeLine="26" fill="#3D176E" height="39.7891" id="aws_iam_role" rx="2.5" ry="2.5" style="stroke:#000D19;stroke-width:0.5;" width="157" x="7" y="7"/><ellipse cx="22" cy="26.8945" fill="#ADD1B2" rx="11" ry="11" style="stroke:#181818;stroke-width:1.0;"/><path d="M24.9688,32.5352 Q24.3906,32.832 23.75,32.9727 Q23.1094,33.1289 22.4063,33.1289 Q19.9063,33.1289 18.5781,31.4883 Q17.2656,29.832 17.2656,26.707 Q17.2656,23.582 18.5781,21.9258 Q19.9063,20.2695 22.4063,20.2695 Q23.1094,20.2695 23.75,20.4258 Q24.4063,20.582 24.9688,20.8789 L24.9688,23.5977 Q24.3438,23.0195 23.75,22.7539 Q23.1563,22.4727 22.5313,22.4727 Q21.1875,22.4727 20.5,23.5508 Q19.8125,24.6133 19.8125,26.707 Q19.8125,28.8008 20.5,29.8789 Q21.1875,30.9414 22.5313,30.9414 Q23.1563,30.9414 23.75,30.6758 Q24.3438,30.3945 24.9688,29.8164 L24.9688,32.5352 Z " fill="#000000"/><text fill="#D9B8FF" font-family="Helvetica" font-size="17" lengthAdjust="spacing" textLength="115" x="41" y="32.7798">aws_iam_role</text></g><!--link aws_ecs_task_definition to aws_ecs_task--><g id="link_aws_ecs_task_definition_aws_ecs_task"><path codeLine="28" d="M156.11,147.01 C141.89,162.81 121.73,185.22 106.58,202.05 " fill="none" id="aws_ecs_task_definition-to-aws_ecs_task" style="stroke:#1A83AF;stroke-width:2.0;"/><polygon fill="#1A83AF" points="103.85,205.2,112.8362,201.1691,107.1877,201.4772,106.8796,195.8287,103.85,205.2" style="stroke:#1A83AF;stroke-width:2.0;"/></g><!--link aws_iam_role to aws_ecs_task--><g id="link_aws_iam_role_aws_ecs_task"><path codeLine="29" d="M68.57,47.05 C56.45,62.12 41.15,84.27 34.5,106.79 C29.5,123.75 29.5,129.62 34.5,146.58 C40.52,166.99 53.66,187.1 65.09,201.9 " fill="none" id="aws_iam_role-to-aws_ecs_task" style="stroke:#1A83AF;stroke-width:2.0;"/><polygon fill="#1A83AF" points="68.57,205.32,66.135,195.7769,65.4727,201.3949,59.8548,200.7326,68.57,205.32" style="stroke:#1A83AF;stroke-width:2.0;"/></g><!--link aws_iam_role to aws_ecs_task_definition--><g id="link_aws_iam_role_aws_ecs_task_definition"><path codeLine="30" d="M102.89,47.22 C117.11,63.02 137.27,85.43 152.42,102.26 " fill="none" id="aws_iam_role-to-aws_ecs_task_definition" style="stroke:#1A83AF;stroke-width:2.0;"/><polygon fill="#1A83AF" points="155.15,105.41,152.1204,96.0387,151.8123,101.6872,146.1638,101.3791,155.15,105.41" style="stroke:#1A83AF;stroke-width:2.0;"/></g><!--SRC=[fP3DJiCm48JlVGfBELTAg23j1IbKgk1I8SeDeMWRhnihYHsjjrG5yUxG5f3ZzEV0TURppAnBBL5Wq_9MDDWiaTp0LTgqGD28ZCXkfhQs92AbG8tIq9nPmnU1EJGexh5-GzO5XCHpgOlAe7FYohFkeAXMPDT67kAPmBXl2mrxrBG6vp9cqiirepT6JfPZfK8o38r6Cabli8TPaaW_I1p7Cfc4oCMgitV_4GlzZYBnFsrk6NipUnLxwkpA7U6Dx1twwv_S-0XIQhCIrvxsTDX41gcZBqgGThEZ5TJEht6CX9QtBKvxL-5aB5Lw57uu1HUxdnEmSJaMBcTmbVWOV1wHSubA6ytQce3GqEHaQzpBfvuCNw8a6u-osUlmjfCxw4Jy5_Cglm00]--></g></svg>

<svg xmlns="http://www.w3.org/2000/svg" width="302" height="252" preserveAspectRatio="none" style="width:302px;height:252px"><rect width="154" height="39.789" x="8.5" y="206.58" fill="#3D176E" rx="2.5" ry="2.5" style="stroke:#000d19;stroke-width:.5"/><circle cx="23.5" cy="226.475" r="11" fill="#ADD1B2" style="stroke:#181818;stroke-width:1"/><path d="M26.469 232.115q-.578.297-1.219.438-.64.156-1.344.156-2.5 0-3.828-1.64-1.312-1.657-1.312-4.782t1.312-4.781q1.328-1.656 3.828-1.656.703 0 1.344.156.656.156 1.219.453v2.719q-.625-.578-1.219-.844-.594-.281-1.219-.281-1.343 0-2.031 1.078-.688 1.062-.688 3.156 0 2.094.688 3.172.688 1.062 2.031 1.062.625 0 1.219-.265.594-.281 1.219-.86v2.72Z"/><text x="42.5" y="232.36" fill="#D9B8FF" font-family="Helvetica" font-size="17" textLength="112">aws_ecs_task</text><rect width="243" height="39.789" x="52" y="106.79" fill="#3D176E" rx="2.5" ry="2.5" style="stroke:#000d19;stroke-width:.5"/><circle cx="67" cy="126.684" r="11" fill="#ADD1B2" style="stroke:#181818;stroke-width:1"/><path d="M69.969 132.325q-.578.297-1.219.438-.64.156-1.344.156-2.5 0-3.828-1.64-1.312-1.657-1.312-4.782t1.312-4.781q1.328-1.656 3.828-1.656.703 0 1.344.156.656.156 1.219.453v2.719q-.625-.579-1.219-.844-.594-.281-1.219-.281-1.344 0-2.031 1.078-.688 1.062-.688 3.156 0 2.094.688 3.172.688 1.062 2.031 1.062.625 0 1.219-.265.594-.281 1.219-.86v2.72Z"/><text x="86" y="132.57" fill="#D9B8FF" font-family="Helvetica" font-size="17" textLength="201">aws_ecs_task_definition</text><rect width="157" height="39.789" x="7" y="7" fill="#3D176E" rx="2.5" ry="2.5" style="stroke:#000d19;stroke-width:.5"/><circle cx="22" cy="26.895" r="11" fill="#ADD1B2" style="stroke:#181818;stroke-width:1"/><path d="M24.969 32.535q-.578.297-1.219.438-.64.156-1.344.156-2.5 0-3.828-1.64-1.312-1.657-1.312-4.782t1.312-4.781q1.328-1.656 3.828-1.656.703 0 1.344.156.656.156 1.219.453v2.719q-.625-.578-1.219-.844-.594-.281-1.219-.281-1.343 0-2.031 1.078-.688 1.062-.688 3.156 0 2.094.688 3.172.688 1.062 2.031 1.062.625 0 1.219-.265.594-.281 1.219-.86v2.72Z"/><text x="41" y="32.78" fill="#D9B8FF" font-family="Helvetica" font-size="17" textLength="115">aws_iam_role</text><path fill="none" d="M156.11 147.01c-14.22 15.8-34.38 38.21-49.53 55.04" style="stroke:#1a83af;stroke-width:2"/><path fill="#1A83AF" d="m103.85 205.2 8.986-4.03-5.648.307-.308-5.648-3.03 9.371z" style="stroke:#1a83af;stroke-width:2"/><path fill="none" d="M68.57 47.05C56.45 62.12 41.15 84.27 34.5 106.79c-5 16.96-5 22.83 0 39.79 6.02 20.41 19.16 40.52 30.59 55.32" style="stroke:#1a83af;stroke-width:2"/><path fill="#1A83AF" d="m68.57 205.32-2.435-9.543-.662 5.618-5.618-.662 8.715 4.587z" style="stroke:#1a83af;stroke-width:2"/><path fill="none" d="M102.89 47.22c14.22 15.8 34.38 38.21 49.53 55.04" style="stroke:#1a83af;stroke-width:2"/><path fill="#1A83AF" d="m155.15 105.41-3.03-9.371-.308 5.648-5.648-.308 8.986 4.031z" style="stroke:#1a83af;stroke-width:2"/></svg>
